assets/icons/battery/1.svg

<?xml version="1.0" encoding="UTF-8" standalone="no"?>
<svg viewBox="0 0 24 24" height="24" id="svg7384" version="1.1" width="24" sodipodi:docname="level-10.svg" inkscape:version="1.1 (ce6663b3b7, 2021-05-25)"
   xmlns:inkscape="http://www.inkscape.org/namespaces/inkscape"
   xmlns:sodipodi="http://sodipodi.sourceforge.net/DTD/sodipodi-0.dtd"
   xmlns="http://www.w3.org/2000/svg"
   xmlns:svg="http://www.w3.org/2000/svg"
   xmlns:rdf="http://www.w3.org/1999/02/22-rdf-syntax-ns#"
   xmlns:cc="http://creativecommons.org/ns#"
   xmlns:dc="http://purl.org/dc/elements/1.1/">
   <sodipodi:namedview id="namedview22" pagecolor="#ffffff" bordercolor="#666666" borderopacity="1.0" inkscape:pageshadow="2" inkscape:pageopacity="0.0" inkscape:pagecheckerboard="0" showgrid="true" inkscape:zoom="27.999857" inkscape:cx="7.55361" inkscape:cy="11.339344" inkscape:window-width="1920" inkscape:window-height="1016" inkscape:window-x="0" inkscape:window-y="27" inkscape:window-maximized="1" inkscape:current-layer="svg7384" inkscape:snap-page="true">
      <inkscape:grid type="xygrid" id="grid837" />
   </sodipodi:namedview>
   <metadata id="metadata20854">
      <rdf:RDF>
         <cc:Work rdf:about="">
            <dc:format>image/svg+xml</dc:format>
            <dc:type rdf:resource="http://purl.org/dc/dcmitype/StillImage" />
         </cc:Work>
      </rdf:RDF>
   </metadata>
   <defs id="defs7386">
      <linearGradient id="linearGradient5606" inkscape:swatch="solid">
         <stop id="stop5608" offset="0" style="stop-color:#000000;stop-opacity:1;" />
      </linearGradient>
      <linearGradient id="linearGradient4526" inkscape:swatch="solid">
         <stop id="stop4528" offset="0" style="stop-color:#ffffff;stop-opacity:1;" />
      </linearGradient>
      <linearGradient id="linearGradient3600-4" inkscape:swatch="gradient">
         <stop id="stop3602-7" offset="0" style="stop-color:#f4f4f4;stop-opacity:1" />
         <stop id="stop3604-6" offset="1" style="stop-color:#dbdbdb;stop-opacity:1" />
      </linearGradient>
   </defs>
   <path id="path1347-7" style="color:#000000;fill:#808080;stroke-width:4;-inkscape-stroke:none" d="M 9.984375 2 L 9.984375 3 L 7.9902344 3 C 7.5518344 3 7.2045494 3.007 6.9121094 3.1171875 C 6.6196694 3.2269675 6.3845336 3.4248612 6.2460938 3.6757812 C 5.9692137 4.1776112 5.994075 4.7920594 5.984375 5.6308594 L 5.984375 5.6328125 L 6.015625 18.335938 L 6.015625 18.337891 C 6.025625 19.176691 6.000524 19.789186 6.2773438 20.291016 C 6.4157838 20.541936 6.6509194 20.741783 6.9433594 20.851562 C 7.2357994 20.961344 7.5830844 21 8.0214844 21 L 16.015625 21 C 16.454035 21 16.80131 20.961401 17.09375 20.851562 C 17.38619 20.741782 17.619373 20.541936 17.757812 20.291016 C 18.034692 19.789186 18.005925 19.176691 18.015625 18.337891 L 18.015625 18.335938 L 17.984375 5.6328125 L 17.984375 5.6308594 C 17.974375 4.7920594 18.003374 4.1776114 17.726562 3.6757812 C 17.588123 3.4248614 17.35494 3.2269675 17.0625 3.1171875 C 16.77006 3.0075175 16.422785 3 15.984375 3 L 13.984375 3 L 13.984375 2 L 9.984375 2 z M 7.9902344 4 L 15.984375 4 C 16.411744 4 16.646584 4.0293344 16.708984 4.0527344 C 16.794484 4.0848344 16.835732 4.1295334 16.851562 4.1582031 C 16.946662 4.3306031 16.971922 4.7758025 16.982422 5.6328125 L 17.015625 18.326172 L 17.015625 18.337891 C 17.005425 19.192271 16.977925 19.636194 16.882812 19.808594 C 16.867013 19.837294 16.827623 19.881995 16.742188 19.914062 C 16.619357 19.960313 16.393815 20 16.015625 20 L 8.0214844 20 C 7.6433444 20 7.4176219 19.960062 7.2949219 19.914062 C 7.2094219 19.881963 7.1681638 19.837262 7.1523438 19.808594 C 7.0542438 19.630694 7.025925 19.188539 7.015625 18.324219 L 6.9824219 5.6328125 C 6.9926219 4.7799925 7.0215208 4.3351631 7.1191406 4.1582031 C 7.1349406 4.1295031 7.1762387 4.0848041 7.2617188 4.0527344 C 7.3230188 4.0296344 7.5624744 4 7.9902344 4 z " />
   <rect style="fill:#808080;fill-rule:evenodd;stroke-width:0.5;stroke-linecap:square" id="rect1141" width="8" height="1.4" x="8" y="17.6" />
</svg>

<svg height="24" width="24" xmlns="http://www.w3.org/2000/svg"><path style="color:#000;fill:gray;stroke-width:4;-inkscape-stroke:none" d="M9.984 2v1H7.99c-.438 0-.785.007-1.078.117a1.26 1.26 0 0 0-.666.559c-.277.502-.252 1.116-.262 1.955v.002l.032 12.703v.002c.01.839-.015 1.451.261 1.953.139.25.374.45.666.56.293.11.64.149 1.078.149h7.995c.438 0 .785-.039 1.078-.148.292-.11.525-.31.664-.561.277-.502.248-1.114.258-1.953v-.002l-.032-12.703V5.63c-.01-.839.02-1.453-.257-1.955a1.25 1.25 0 0 0-.665-.559c-.292-.11-.64-.117-1.078-.117h-2V2h-4zM7.99 4h7.994c.428 0 .663.03.725.053a.27.27 0 0 1 .143.105c.095.173.12.618.13 1.475l.034 12.693v.012c-.01.854-.038 1.298-.133 1.47-.016.03-.055.074-.14.106-.124.046-.35.086-.727.086H8.02c-.378 0-.603-.04-.726-.086-.086-.032-.127-.077-.143-.105-.098-.178-.126-.62-.136-1.485L6.982 5.633c.01-.853.04-1.298.137-1.475.016-.028.057-.073.143-.105.061-.023.3-.053.728-.053z"/><path style="fill:gray;stroke-width:.5;stroke-linecap:square" d="M8 17.6h8V19H8z"/></svg>
